StripePaymentSheet/StripePaymentSheet/Resources/StripePaymentSheet.xcassets/Carousel/carousel_card_jcb.imageset/jcbLight.svg

<svg fill="none" height="40" viewBox="0 0 56 40" width="56" xmlns="http://www.w3.org/2000/svg"><g fill="#46a548"><path d="m36.064 22.5864h2.3008c.0658 0 .2192-.0219.2849-.0219.4382-.0876.8108-.4821.8108-1.0299 0-.5259-.3726-.9204-.8108-1.0299-.0657-.0219-.1972-.0219-.2849-.0219h-2.3008z"/><path d="m38.1019 8.0581c-2.1913 0-3.9882 1.77495-3.9882 3.9882v4.1415h5.6316c.1315 0 .2849 0 .3945.0219 1.2709.0658 2.2132.7232 2.2132 1.8626 0 .8985-.6355 1.6654-1.8188 1.8188v.0438c1.2929.0877 2.279.8108 2.279 1.9284 0 1.2052-1.0957 1.9941-2.5419 1.9941h-6.1795v8.1078h5.8508c2.1913 0 3.9881-1.775 3.9881-3.9882v-19.9189z"/><path d="m39.1756 18.3353c0-.5259-.3725-.8765-.8108-.9423-.0438 0-.1534-.0219-.2191-.0219h-2.0817v1.9283h2.0817c.0657 0 .1972 0 .2191-.0219.4383-.0657.8108-.4163.8108-.9422z"/></g><path d="m16.0574 8.0581c-2.1913 0-3.9881 1.77495-3.9881 3.9882v9.8389c1.1175.5478 2.2789.8984 3.4403.8984 1.3805 0 2.1256-.8327 2.1256-1.9722v-4.6455h3.4184v4.6236c0 1.7969-1.1176 3.2651-4.9085 3.2651-2.3009 0-4.0977-.504-4.0977-.504v8.3926h5.8507c2.1913 0 3.9882-1.7749 3.9882-3.9881v-19.897z" fill="#1b6baf"/><path d="m27.0797 8.0581c-2.1913 0-3.9881 1.77495-3.9881 3.9882v5.2152c1.0079-.8546 2.761-1.4024 5.5878-1.2709 1.512.0657 3.1335.4821 3.1335.4821v1.6873c-.8108-.4164-1.7749-.7889-3.024-.8765-2.1474-.1534-3.4403.8984-3.4403 2.7391 0 1.8626 1.2929 2.9144 3.4403 2.7391 1.2491-.0876 2.2132-.4821 3.024-.8765v1.6873s-1.5996.4163-3.1335.4821c-2.8268.1314-4.5799-.4164-5.5878-1.271v9.2035h5.8507c2.1913 0 3.9882-1.775 3.9882-3.9882v-19.9408z" fill="#d02644"/></svg>

<svg width="56" height="40" viewBox="0 0 56 40" fill="none" xmlns="http://www.w3.org/2000/svg">
<path d="M36.064 22.5864H38.3648C38.4306 22.5864 38.584 22.5645 38.6497 22.5645C39.0879 22.4769 39.4605 22.0824 39.4605 21.5346C39.4605 21.0087 39.0879 20.6142 38.6497 20.5047C38.584 20.4828 38.4525 20.4828 38.3648 20.4828H36.064V22.5864Z" fill="#46A548"/>
<path d="M38.1019 8.0581C35.9106 8.0581 34.1137 9.83305 34.1137 12.0463V16.1878H39.7453C39.8768 16.1878 40.0302 16.1878 40.1398 16.2097C41.4107 16.2755 42.353 16.9329 42.353 18.0723C42.353 18.9708 41.7175 19.7377 40.5342 19.8911V19.9349C41.8271 20.0226 42.8132 20.7457 42.8132 21.8633C42.8132 23.0685 41.7175 23.8574 40.2713 23.8574H34.0918V31.9652H39.9426C42.1339 31.9652 43.9307 30.1902 43.9307 27.977V8.0581H38.1019Z" fill="#46A548"/>
<path d="M39.1756 18.3353C39.1756 17.8094 38.8031 17.4588 38.3648 17.393C38.321 17.393 38.2114 17.3711 38.1457 17.3711H36.064V19.2994H38.1457C38.2114 19.2994 38.3429 19.2994 38.3648 19.2775C38.8031 19.2118 39.1756 18.8612 39.1756 18.3353Z" fill="#46A548"/>
<path d="M16.0574 8.0581C13.8661 8.0581 12.0693 9.83305 12.0693 12.0463V21.8852C13.1868 22.433 14.3482 22.7836 15.5096 22.7836C16.8901 22.7836 17.6352 21.9509 17.6352 20.8114V16.1659H21.0536V20.7895C21.0536 22.5864 19.936 24.0546 16.1451 24.0546C13.8442 24.0546 12.0474 23.5506 12.0474 23.5506V31.9432H17.8981C20.0894 31.9432 21.8863 30.1683 21.8863 27.9551V8.0581H16.0574Z" fill="#1B6BAF"/>
<path d="M27.0797 8.0581C24.8884 8.0581 23.0916 9.83305 23.0916 12.0463V17.2615C24.0995 16.4069 25.8526 15.8591 28.6794 15.9906C30.1914 16.0563 31.8129 16.4727 31.8129 16.4727V18.16C31.0021 17.7436 30.038 17.3711 28.7889 17.2835C26.6415 17.1301 25.3486 18.1819 25.3486 20.0226C25.3486 21.8852 26.6415 22.937 28.7889 22.7617C30.038 22.6741 31.0021 22.2796 31.8129 21.8852V23.5725C31.8129 23.5725 30.2133 23.9888 28.6794 24.0546C25.8526 24.186 24.0995 23.6382 23.0916 22.7836V31.9871H28.9423C31.1336 31.9871 32.9305 30.2121 32.9305 27.9989V8.0581H27.0797Z" fill="#D02644"/>
</svg>
